X:1
T:Title
%%score 1 { 2 | 3 }
L:1/8
Q:1/4=125
M:3/4
K:C
V:1 treble nm="Grand Piano, Soprano"
V:2 bass nm="Choir Pad, Iscah, Lowell Mason, 1839"
V:3 bass 
V:1
 C2 E2 G2 | A4 A2 | D4 D2 | G4 z2 | [DG]2 [DG]2 [DF]2 | [CE]4 [EA]2 | [^FA]4 [DF]2 | [DG]4 z2 | %8
w: By~Lowell~Mason,~1839 * *||||||||
 E2 E2 E2 | [EA]4 [FB]2 | [EA]4 [E^G]2 | [EA]4 z2 | [^FA]2 [FA]2 [FA]2 | [GB]4 [Gc]2 | %14
w: ||||||
 [Fc]4 [FB]2 | [Ec]6- | [Ec]2 z2 z2 |] %17
w: |||
V:2
 C,2 E,2 G,2 | A,4 A,2 | D,4 D,2 | G,4 z2 | B,2 B,2 G,2 | G,4 C2 | D4 C2 | B,4 z2 | E,2 E,2 E,2 | %9
 C4 D2 | C4 B,2 | C4 z2 | D2 D2 D2 | D4[K:bass] G,2 | A,4 G,2 | G,6- | G,2 z2 z2 |] %17
V:3
 z6 | z6 | z6 | z6 | G,2 G,2 B,,2 | C,4 A,,2 | D,4 D,2 | G,,4 z2 | z6 | A,,4 D,2 | E,4 E,2 | %11
 A,,4 z2 | D,2 D,2 D,2 | G,2 F,2 E,2 | D,4 z2 | C,6- | C,2 z2 z2 |] %17

